X: 15
T:Danza de "Danzas y Galanes"
M:6/8
L:1/16
Q:200
C:Trad
R:Danza
B:Leccións de Gaita. OTERO COVELO
K:C
C4 C2 C4 C2 | GAGFED CB,CDEC | FGFEDC B,CDB,D2 |
GAGFED CB,CDEC | DEFDB,D C6 | CB,CDEC F6 | DEFDEF G6 |
GFEFGE A6| BAGABG c6| cdcBAG FEFGAF |
BcBAGF EFGEC2 | GAGFED CB,CDEC | DEFDB,D C6 |
A2F2A2 G3EC2 | A2F2A2 G6 | A2F2 A2 G3FED | A2F2A2 G6 |
cdcBAG FEFGAF | BcBAGF EFGEC2 | GAGFED CB,CDEC | DEFDB,D C6 |!
"adagio"
M:2/4
|: CB,CD E2C2 | F8 | 
DEFD E2F2 | G8 | GFEF G2E2 | A8 | BAGA B2G2 | c8 |
cBAG E2G2 | F8 | 
M:3/4
E2EE D2C2 F2C2 | E2(3DCB, C2G2 E2C2 |
M:2/4
DCB,C D2B,2| C8 :|

